icon-svg/oauth.svg

<svg xmlns="http://www.w3.org/2000/svg" fill="#44739e" viewBox="0 0 24 24"><path d="M21.474 8.923a10.52 10.52 0 0 0-1.153-2.431A9.395 9.395 0 0 0 12.1 1.981q-.4 0-.827.025a10.17 10.17 0 0 0-3.258.777 12.1 12.1 0 0 0-1.93 1.1A9.04 9.04 0 0 0 4.13 5.766a10.1 10.1 0 0 0-1.378 2.406l-.125.3a7.9 7.9 0 0 0-.3.827A8.83 8.83 0 0 0 2 11.755a11.57 11.57 0 0 0 .226 2.331 9.76 9.76 0 0 0 2.055 4.286 11.47 11.47 0 0 0 3.483 2.707 8.4 8.4 0 0 0 2.745.839 10.84 10.84 0 0 0 3.12-.025A9.59 9.59 0 0 0 16.511 21a10.087 10.087 0 0 0 3.81-3.484 9.64 9.64 0 0 0 1.2-2.506A10.25 10.25 0 0 0 22 11.906a9.28 9.28 0 0 0-.526-2.983m-5.1 7.657a1.174 1.174 0 0 1-.714.614 1.67 1.67 0 0 1-.4.05 1.253 1.253 0 0 1-.727-.225 1.164 1.164 0 0 1-.451-.627l-.576-1.83H10.5l-.576 1.83a1.227 1.227 0 0 1-.451.614 1.2 1.2 0 0 1-.727.238 1.38 1.38 0 0 1-.376-.05 1.186 1.186 0 0 1-.739-.6 1.22 1.22 0 0 1-.088-.953L10.07 7.62a1.225 1.225 0 0 1 .451-.639 1.2 1.2 0 0 1 .727-.238H12.6a1.2 1.2 0 0 1 .726.238 1.216 1.216 0 0 1 .451.614l2.657 8.02a1.177 1.177 0 0 1-.061.965z"/></svg>

<?xml version="1.0" encoding="UTF-8"?>
<svg width="24px" fill="#44739e" height="24px" viewBox="0 0 24 24" version="1.1" xmlns="http://www.w3.org/2000/svg" xmlns:xlink="http://www.w3.org/1999/xlink">
            <path d="M 21.474,8.923 A 10.516,10.516 0 0 0 20.321,6.492 9.395,9.395 0 0 0 12.1,1.981 q -0.4,0 -0.827,0.025 A 10.167,10.167 0 0 0 8.015,2.783 12.075,12.075 0 0 0 6.085,3.883 9.036,9.036 0 0 0 4.13,5.766 10.1,10.1 0 0 0 2.752,8.172 l -0.125,0.3 A 7.91,7.91 0 0 0 2.327,9.299 8.831,8.831 0 0 0 2,11.755 a 11.566,11.566 0 0 0 0.226,2.331 9.757,9.757 0 0 0 2.055,4.286 11.474,11.474 0 0 0 3.483,2.707 8.4,8.4 0 0 0 2.745,0.839 10.844,10.844 0 0 0 3.12,-0.025 9.59,9.59 0 0 0 2.882,-0.893 10.087,10.087 0 0 0 3.81,-3.484 9.643,9.643 0 0 0 1.2,-2.506 A 10.252,10.252 0 0 0 22,11.906 9.283,9.283 0 0 0 21.474,8.923 Z m -5.1,7.657 a 1.174,1.174 0 0 1 -0.714,0.614 1.668,1.668 0 0 1 -0.4,0.05 1.253,1.253 0 0 1 -0.727,-0.225 1.164,1.164 0 0 1 -0.451,-0.627 l -0.576,-1.83 H 10.5 l -0.576,1.83 A 1.227,1.227 0 0 1 9.473,17.006 1.2,1.2 0 0 1 8.746,17.244 1.378,1.378 0 0 1 8.37,17.194 1.186,1.186 0 0 1 7.631,16.594 1.219,1.219 0 0 1 7.543,15.641 L 10.07,7.62 A 1.225,1.225 0 0 1 10.521,6.981 1.2,1.2 0 0 1 11.248,6.743 H 12.6 a 1.2,1.2 0 0 1 0.726,0.238 1.216,1.216 0 0 1 0.451,0.614 l 2.657,8.02 a 1.177,1.177 0 0 1 -0.061,0.965 z"/>

</svg>
